svg/fluentui-system-icons/ic_fluent_share_screen_stop_48_regular.svg

<svg width="48" height="48" viewBox="0 0 48 48" fill="none" xmlns="http://www.w3.org/2000/svg">
<path d="M22.2322 24L16.3661 18.1339C15.878 17.6457 15.878 16.8543 16.3661 16.3661C16.8543 15.878 17.6457 15.878 18.1339 16.3661L24 22.2322L29.8661 16.3661C30.3543 15.878 31.1457 15.878 31.6339 16.3661C32.122 16.8543 32.122 17.6457 31.6339 18.1339L25.7678 24L31.6339 29.8661C32.122 30.3543 32.122 31.1457 31.6339 31.6339C31.1457 32.122 30.3543 32.122 29.8661 31.6339L24 25.7678L18.1339 31.6339C17.6457 32.122 16.8543 32.122 16.3661 31.6339C15.878 31.1457 15.878 30.3543 16.3661 29.8661L22.2322 24ZM4 12.75C4 10.1266 6.12665 8 8.75 8H39.25C41.8734 8 44 10.1266 44 12.75V35.25C44 37.8734 41.8734 40 39.25 40H8.75C6.12665 40 4 37.8734 4 35.25V12.75ZM8.75 10.5C7.50736 10.5 6.5 11.5074 6.5 12.75V35.25C6.5 36.4926 7.50736 37.5 8.75 37.5H39.25C40.4926 37.5 41.5 36.4926 41.5 35.25V12.75C41.5 11.5074 40.4926 10.5 39.25 10.5H8.75Z" fill="#212121"/>
</svg>

<svg xmlns="http://www.w3.org/2000/svg" width="48" height="48"><path d="m22.232 24-5.866-5.866a1.25 1.25 0 0 1 1.768-1.768L24 22.232l5.866-5.866a1.25 1.25 0 0 1 1.768 1.768L25.768 24l5.866 5.866a1.25 1.25 0 0 1-1.768 1.768L24 25.768l-5.866 5.866a1.25 1.25 0 0 1-1.768-1.768L22.232 24ZM4 12.75A4.75 4.75 0 0 1 8.75 8h30.5A4.75 4.75 0 0 1 44 12.75v22.5A4.75 4.75 0 0 1 39.25 40H8.75A4.75 4.75 0 0 1 4 35.25v-22.5Zm4.75-2.25a2.25 2.25 0 0 0-2.25 2.25v22.5a2.25 2.25 0 0 0 2.25 2.25h30.5a2.25 2.25 0 0 0 2.25-2.25v-22.5a2.25 2.25 0 0 0-2.25-2.25H8.75Z"/></svg>
